src/asset/img/icon/ok.svg

<svg height="22.45" width="22.452" xmlns:xlink="http://www.w3.org/1999/xlink" xmlns="http://www.w3.org/2000/svg"><use height="8.75" transform="translate(4.202 5.55)" width="21" xlink:href="#a"/><defs><path d="M9.25-13.25q0-3.95 1.9-6.05 1.85-2.1 4.6-2.1 2.75 0 4.65 2.1 1.85 2.1 1.85 6 0 4-1.85 6.1-1.9 2.1-4.65 2.1-2.75 0-4.6-2.1-1.9-2.1-1.9-6.05m-7.2-.4q0 4.6 1.75 7.8 1.7 3.15 5.05 4.8Q12.15.6 15.8.6q5.9 0 9.8-3.95 3.85-3.95 3.85-10 0-5.95-3.85-9.85-3.85-3.95-9.85-3.95-3.9 0-7.05 1.75-3.2 1.7-4.9 5-1.75 3.25-1.75 6.75" fill-rule="evenodd" id="b"/><path d="M3.45 0h7v-8.5l3.3-3.4L20.4 0H28l-9.75-16.85 9.1-9.7H18.7l-8.25 9.35v-19.45h-7V0" fill-rule="evenodd" id="c"/><g fill="#fff" transform="translate(-.5 -2.55)" id="a"><use height="8.75" transform="translate(0 11) scale(.2344)" width="21" xlink:href="#b"/><use height="8.75" transform="translate(7.35 11) scale(.2344)" width="21" xlink:href="#c"/></g></defs></svg>

<?xml version="1.0" encoding="UTF-8" standalone="no"?>
<svg xmlns:xlink="http://www.w3.org/1999/xlink" height="22.5px" width="25.25px" xmlns="http://www.w3.org/2000/svg">
  <g transform="matrix(1.0, 0.0, 0.0, 1.0, 39.55, 12.5)">
    <use height="22.45" transform="matrix(1.0, 0.0, 0.0, 1.0, -39.55, -12.45)" width="22.5" xlink:href="#sprite0"/>
    <use height="8.75" transform="matrix(1.0, 0.0, 0.0, 1.0, -35.3, -6.9)" width="21.0" xlink:href="#text0"/>
  </g>
  <defs>
    <g id="sprite0" transform="matrix(1.0, 0.0, 0.0, 1.0, 11.25, 11.2)">
      <use height="22.45" transform="matrix(1.0, 0.0, 0.0, 1.0, -11.25, -11.2)" width="22.5" xlink:href="#sprite1"/>
    </g>
    <g id="sprite1" transform="matrix(1.0, 0.0, 0.0, 1.0, 11.25, 11.25)">
      <use height="22.45" transform="matrix(1.0, 0.0, 0.0, 1.0, -11.25, -11.25)" width="22.5" xlink:href="#shape0"/>
    </g>
    <g id="shape0" transform="matrix(1.0, 0.0, 0.0, 1.0, 11.25, 11.25)">
      <path d="M-7.6 7.6 L-7.05 8.1 -7.55 7.65 -7.6 7.6" fill="url(#gradient0)" fill-rule="evenodd" stroke="none"/>
      <path d="M-7.6 7.6 Q-10.75 4.45 -10.7 0.05 L-10.7 -0.1 Q-10.75 -3.05 -9.25 -5.45 L-7.6 -7.6 -6.9 -8.25 -5.05 -9.5 -3.35 -10.25 0.05 -10.75 2.25 -10.55 Q4.45 -10.1 6.25 -8.75 L7.6 -7.6 Q10.75 -4.4 10.75 0.0 10.75 2.55 9.7 4.7 L8.25 6.95 7.6 7.6 7.6 7.65 Q4.4 10.7 0.05 10.7 L-2.35 10.45 Q-4.65 9.95 -6.55 8.55 L-7.05 8.1 -7.6 7.6 M1.85 1.85 L1.85 1.9 1.9 1.85 1.85 1.85" fill="#ff3399" fill-rule="evenodd" stroke="none"/>
      <path d="M-9.25 -5.45 Q-10.75 -3.05 -10.7 -0.1 L-10.7 0.05 Q-10.75 4.45 -7.6 7.6 M-5.05 -9.5 L-6.9 -8.25" fill="none" stroke="#ff99cc" stroke-linecap="round" stroke-linejoin="round" stroke-width="1.0"/>
      <path d="M-7.6 7.6 L-7.05 8.1 -6.55 8.55 Q-4.65 9.95 -2.35 10.45 M6.25 -8.75 Q4.45 -10.1 2.25 -10.55" fill="none" stroke="#ff3399" stroke-linecap="round" stroke-linejoin="round" stroke-width="1.0"/>
      <path d="M-2.35 10.45 L0.05 10.7 Q4.4 10.7 7.6 7.65 L8.25 6.95 9.7 4.7 Q10.75 2.55 10.75 0.0 10.75 -4.4 7.6 -7.6 L6.25 -8.75" fill="none" stroke="#cc0066" stroke-linecap="round" stroke-linejoin="round" stroke-width="1.0"/>
      <path d="M2.25 -10.55 L0.05 -10.75 -3.35 -10.25" fill="none" stroke="#ff99cc" stroke-linecap="round" stroke-linejoin="round" stroke-width="1.0"/>
      <path d="M-3.35 -10.25 L-5.05 -9.5 M-6.9 -8.25 L-7.6 -7.6 -9.25 -5.45 Z" fill="none" stroke="#ffc1e0" stroke-linecap="round" stroke-linejoin="round" stroke-width="1.0"/>
    </g>
    <radialGradient cx="0" cy="0" gradientTransform="matrix(0.0179, 0.0, 0.0, 0.0179, -2.0, -1.9)" gradientUnits="userSpaceOnUse" id="gradient0" r="819.2" spreadMethod="pad">
      <stop offset="0.26666666666666666" stop-color="#ffbbdd"/>
      <stop offset="1.0" stop-color="#f10179"/>
    </radialGradient>
    <g id="text0" transform="matrix(1.0, 0.0, 0.0, 1.0, -0.5, -2.55)">
      <g transform="matrix(1.0, 0.0, 0.0, 1.0, 0.0, 0.0)">
        <use fill="#ffffff" height="8.75" transform="matrix(0.2344, 0.0, 0.0, 0.2344, 0.0, 11.0)" width="21.0" xlink:href="#font_Arial_o0"/>
        <use fill="#ffffff" height="8.75" transform="matrix(0.2344, 0.0, 0.0, 0.2344, 7.35, 11.0)" width="21.0" xlink:href="#font_Arial_k0"/>
      </g>
    </g>
    <g id="font_Arial_o0">
      <path d="M9.25 -13.25 L9.25 -13.25 Q9.25 -17.2 11.15 -19.3 13.0 -21.4 15.75 -21.4 18.5 -21.4 20.4 -19.3 22.25 -17.2 22.25 -13.3 22.25 -9.3 20.4 -7.2 18.5 -5.1 15.75 -5.1 13.0 -5.1 11.15 -7.2 9.25 -9.3 9.25 -13.25 M2.05 -13.65 L2.05 -13.65 Q2.05 -9.05 3.8 -5.85 5.5 -2.7 8.85 -1.05 12.15 0.6 15.8 0.6 21.7 0.6 25.6 -3.35 29.45 -7.3 29.45 -13.35 29.45 -19.3 25.6 -23.2 21.75 -27.15 15.75 -27.15 11.85 -27.15 8.7 -25.4 5.5 -23.7 3.8 -20.4 2.05 -17.15 2.05 -13.65" fill-rule="evenodd" stroke="none"/>
    </g>
    <g id="font_Arial_k0">
      <path d="M3.45 0.0 L10.45 0.0 10.45 -8.5 13.75 -11.9 20.4 0.0 28.0 0.0 18.25 -16.85 27.35 -26.55 18.7 -26.55 10.45 -17.2 10.45 -36.65 3.45 -36.65 3.45 0.0" fill-rule="evenodd" stroke="none"/>
    </g>
  </defs>
</svg>
